docs/img/card-product/hit-label.svg

<svg width="70" height="24" viewBox="0 0 70 24" fill="none" xmlns="http://www.w3.org/2000/svg">
<rect width="70" height="24" rx="2" fill="white"/>
<rect width="70" height="24" rx="2" fill="#CEAE64"/>
<path d="M24.275 7.06L27.523 11.386L30.757 7.06H31.863L28.055 12.1L31.751 17H30.645L27.523 12.814L24.387 17H23.267L26.963 12.1L23.155 7.06H24.275ZM32.9667 17V9.72H33.9187V15.712L38.3567 9.706H39.2107V17H38.2587V11.106L33.8907 17H32.9667ZM43.1132 17V10.56H40.5092V9.706H46.6692V10.56H44.0652V17H43.1132Z" fill="white"/>
<path d="M24.275 7.06L27.523 11.386L30.757 7.06H31.863L28.055 12.1L31.751 17H30.645L27.523 12.814L24.387 17H23.267L26.963 12.1L23.155 7.06H24.275ZM32.9667 17V9.72H33.9187V15.712L38.3567 9.706H39.2107V17H38.2587V11.106L33.8907 17H32.9667ZM43.1132 17V10.56H40.5092V9.706H46.6692V10.56H44.0652V17H43.1132Z" fill="white"/>
</svg>

<svg width="70" height="24" fill="none" xmlns="http://www.w3.org/2000/svg"><rect width="70" height="24" rx="2" fill="#fff"/><rect width="70" height="24" rx="2" fill="#CEAE64"/><path d="M24.275 7.06l3.248 4.326 3.234-4.326h1.106l-3.808 5.04 3.696 4.9h-1.106l-3.122-4.186L24.387 17h-1.12l3.696-4.9-3.808-5.04h1.12zM32.967 17V9.72h.952v5.992l4.438-6.006h.854V17h-.952v-5.894L33.89 17h-.924zm10.146 0v-6.44H40.51v-.854h6.16v.854h-2.604V17h-.952z" fill="#fff"/><path d="M24.275 7.06l3.248 4.326 3.234-4.326h1.106l-3.808 5.04 3.696 4.9h-1.106l-3.122-4.186L24.387 17h-1.12l3.696-4.9-3.808-5.04h1.12zM32.967 17V9.72h.952v5.992l4.438-6.006h.854V17h-.952v-5.894L33.89 17h-.924zm10.146 0v-6.44H40.51v-.854h6.16v.854h-2.604V17h-.952z" fill="#fff"/></svg>
